dist/svgs/devui-icons/op/set-normal-icon.svg

<?xml version="1.0" encoding="UTF-8"?>
<svg width="16px" height="16px" viewBox="0 0 16 16" version="1.1" xmlns="http://www.w3.org/2000/svg" xmlns:xlink="http://www.w3.org/1999/xlink">
    <title>操作/set-normal-icon</title>
    <desc>Created with Sketch.</desc>
    <g id="操作/set-normal-icon" stroke="none" stroke-width="1" fill="none" fill-rule="evenodd">
        <path d="M8,8 C5.790861,8 4,6.209139 4,4 C4,1.790861 5.790861,0 8,0 C10.209139,0 12,1.790861 12,4 C12,6.209139 10.209139,8 8,8 Z M8,6 C9.1045695,6 10,5.1045695 10,4 C10,2.8954305 9.1045695,2 8,2 C6.8954305,2 6,2.8954305 6,4 C6,5.1045695 6.8954305,6 8,6 Z M2.39166395,14 L9,14 L9,16 L0,16 C0,11.581722 3.581722,8 8,8 C8.70871888,8 9.39591307,8.09215816 10.0502525,8.26514445 L10.0502525,10.3414114 C9.42469468,10.1203084 8.75152338,10 8.05025253,10 C5.43781488,10 3.21533676,11.6696153 2.39166395,14 Z M12,16 L8,12.4142136 L9.41421356,11 L11,12.5857864 L11,9 L13,9 L13,12.5355339 L14.5355339,11 L15.9497475,12.4142136 L12,16 Z" id="形状" fill="#293040"></path>
    </g>
</svg>

<svg xmlns="http://www.w3.org/2000/svg" viewBox="0 0 16 16"><path fill-rule="evenodd" d="M8 8a4 4 0 110-8 4 4 0 010 8zm0-2a2 2 0 100-4 2 2 0 000 4zm-5.608 8H9v2H0a8 8 0 0110.05-7.735v2.076A6.002 6.002 0 002.391 14zM12 16l-4-3.586L9.414 11 11 12.586V9h2v3.536L14.536 11l1.414 1.414L12 16z"/></svg>
